actions/symbolic/distribute-horizontal-center-symbolic.svg

<?xml version="1.0" encoding="UTF-8" standalone="no"?>
<svg
   xmlns:dc="http://purl.org/dc/elements/1.1/"
   xmlns:cc="http://creativecommons.org/ns#"
   xmlns:rdf="http://www.w3.org/1999/02/22-rdf-syntax-ns#"
   xmlns:svg="http://www.w3.org/2000/svg"
   xmlns="http://www.w3.org/2000/svg"
   xmlns:xlink="http://www.w3.org/1999/xlink"
   xmlns:sodipodi="http://sodipodi.sourceforge.net/DTD/sodipodi-0.dtd"
   xmlns:inkscape="http://www.inkscape.org/namespaces/inkscape"
   inkscape:version="1.0 (1.0+r73+1)"
   sodipodi:docname="distribute-horizontal-center-symbolic.svg"
   height="16"
   width="16"
   version="1.1"
   id="svg57">
  <sodipodi:namedview
     inkscape:snap-intersection-paths="true"
     inkscape:guide-bbox="true"
     showguides="true"
     inkscape:current-layer="svg57"
     inkscape:window-maximized="1"
     inkscape:window-y="30"
     inkscape:window-x="0"
     inkscape:cy="9.7167209"
     inkscape:cx="18.343938"
     inkscape:zoom="45.254834"
     showgrid="false"
     id="namedview69"
     inkscape:window-height="1377"
     inkscape:window-width="2560"
     inkscape:pageshadow="2"
     inkscape:pageopacity="0"
     guidetolerance="10"
     gridtolerance="10"
     objecttolerance="10"
     borderopacity="1"
     bordercolor="#666666"
     pagecolor="#ffffff" />
  <metadata
     id="metadata63">
    <rdf:RDF>
      <cc:Work
         rdf:about="">
        <dc:format>image/svg+xml</dc:format>
        <dc:type
           rdf:resource="http://purl.org/dc/dcmitype/StillImage" />
        <dc:title></dc:title>
      </cc:Work>
    </rdf:RDF>
  </metadata>
  <defs
     id="defs61">
    <linearGradient
       id="linearGradient1085"
       gradientTransform="matrix(0.40540511,0,0,0.51351351,2.269687,-0.324319)"
       gradientUnits="userSpaceOnUse"
       x1="23.99999"
       x2="23.99999"
       y1="6.4736748"
       y2="41.526306">
      <stop
         offset="0"
         stop-color="#fff"
         id="stop1077" />
      <stop
         offset="0.00000037"
         stop-color="#fff"
         stop-opacity=".235294"
         id="stop1079" />
      <stop
         offset="1"
         stop-color="#fff"
         stop-opacity=".156863"
         id="stop1081" />
      <stop
         offset="1"
         stop-color="#fff"
         stop-opacity=".392157"
         id="stop1083" />
    </linearGradient>
    <linearGradient
       id="linearGradient1075"
       gradientTransform="matrix(0.40540511,0,0,0.51351351,2.269687,-0.324319)"
       gradientUnits="userSpaceOnUse"
       x1="23.99999"
       x2="23.99999"
       y1="6.4736748"
       y2="41.526306">
      <stop
         offset="0"
         stop-color="#fff"
         id="stop1067" />
      <stop
         offset="0.00000077"
         stop-color="#fff"
         stop-opacity=".235294"
         id="stop1069" />
      <stop
         offset="1"
         stop-color="#fff"
         stop-opacity=".156863"
         id="stop1071" />
      <stop
         offset="1"
         stop-color="#fff"
         stop-opacity=".392157"
         id="stop1073" />
    </linearGradient>
    <linearGradient
       id="linearGradient987">
      <stop
         style="stop-color:#cc3b02;stop-opacity:1;"
         offset="0"
         id="stop983" />
      <stop
         id="stop991"
         offset="0.875"
         style="stop-color:#cc3b02;stop-opacity:1" />
      <stop
         style="stop-color:#cc3b02;stop-opacity:0;"
         offset="1"
         id="stop985" />
    </linearGradient>
    <linearGradient
       y2="47.013336"
       y1="0.98520601"
       x2="25.132275"
       x1="25.132275"
       gradientUnits="userSpaceOnUse"
       gradientTransform="matrix(0.48571543,0,0,0.45629666,-34.78968,-5.734851)"
       id="linearGradient874">
      <stop
         id="stop870"
         stop-color="#f4f4f4"
         offset="0"
         style="stop-color:#fafafa;stop-opacity:1" />
      <stop
         id="stop872"
         stop-color="#dbdbdb"
         offset="1"
         style="stop-color:#d4d4d4;stop-opacity:1" />
    </linearGradient>
    <linearGradient
       xlink:href="#linearGradient874"
       id="linearGradient1061"
       gradientUnits="userSpaceOnUse"
       gradientTransform="matrix(0.5,0,0,-1.2857143,49.749939,-254.2857)"
       x1="-69.999916"
       y1="-200.00011"
       x2="-69.999916"
       y2="-208.00011" />
    <linearGradient
       xlink:href="#linearGradient1085"
       id="linearGradient1063"
       gradientUnits="userSpaceOnUse"
       gradientTransform="matrix(0.40000001,0,0,-1.3999916,42.299951,-277.59827)"
       x1="-73.999916"
       y1="-201.85712"
       x2="-73.999916"
       y2="-206.14285" />
    <linearGradient
       gradientTransform="matrix(-1,0,0,1,7.499799,-6)"
       spreadMethod="reflect"
       gradientUnits="userSpaceOnUse"
       y2="6"
       x2="3.6243253"
       y1="14"
       x1="3.6243253"
       id="linearGradient989-8"
       xlink:href="#linearGradient987" />
    <linearGradient
       gradientTransform="matrix(-1,0,0,1.0952381,7.499799,-7.142857)"
       spreadMethod="reflect"
       gradientUnits="userSpaceOnUse"
       y2="6.4956522"
       x2="3.5515943"
       y1="13.826087"
       x1="3.5515943"
       id="linearGradient953-0"
       xlink:href="#linearGradient951-2" />
    <linearGradient
       id="linearGradient951-2">
      <stop
         id="stop947-3"
         offset="0"
         style="stop-color:#ffa154;stop-opacity:1;" />
      <stop
         style="stop-color:#ffa154;stop-opacity:0.92647058"
         offset="0.87188613"
         id="stop955-7" />
      <stop
         id="stop949-5"
         offset="1"
         style="stop-color:#ffa154;stop-opacity:0;" />
    </linearGradient>
    <linearGradient
       gradientTransform="matrix(-1,0,0,1,19.844408,-6.7884296)"
       spreadMethod="reflect"
       gradientUnits="userSpaceOnUse"
       y2="6"
       x2="3.6243253"
       y1="14"
       x1="3.6243253"
       id="linearGradient989-9"
       xlink:href="#linearGradient987" />
    <linearGradient
       gradientTransform="matrix(-1,0,0,1.0952381,16.5,-7.142857)"
       spreadMethod="reflect"
       gradientUnits="userSpaceOnUse"
       y2="6.4956522"
       x2="3.5515943"
       y1="13.826087"
       x1="3.5515943"
       id="linearGradient953-9"
       xlink:href="#linearGradient951-2" />
  </defs>
  <linearGradient
     id="a"
     gradientTransform="matrix(0.48571543,0,0,0.45629666,-34.78968,-5.734851)"
     gradientUnits="userSpaceOnUse"
     x1="25.132275"
     x2="25.132275"
     y1="0.98520601"
     y2="47.013336">
    <stop
       offset="0"
       stop-color="#f4f4f4"
       id="stop2" />
    <stop
       offset="1"
       stop-color="#dbdbdb"
       id="stop4" />
  </linearGradient>
  <linearGradient
     id="b"
     gradientTransform="matrix(0.25378586,0,0,0.30501865,-43.521986,-5.539135)"
     gradientUnits="userSpaceOnUse"
     x1="-51.786404"
     x2="-51.786404"
     y1="50.786446"
     y2="2.9062469">
    <stop
       offset="0"
       stop-opacity=".339506"
       id="stop7" />
    <stop
       offset="1"
       stop-opacity=".246914"
       id="stop9" />
  </linearGradient>
  <linearGradient
     id="c"
     gradientTransform="matrix(0.40540511,0,0,0.51351351,2.269687,-0.324319)"
     gradientUnits="userSpaceOnUse"
     x1="23.99999"
     x2="23.99999"
     y1="6.4736748"
     y2="41.526306">
    <stop
       offset="0"
       stop-color="#fff"
       id="stop12" />
    <stop
       offset=".05838298"
       stop-color="#fff"
       stop-opacity=".235294"
       id="stop14" />
    <stop
       offset="1"
       stop-color="#fff"
       stop-opacity=".156863"
       id="stop16" />
    <stop
       offset="1"
       stop-color="#fff"
       stop-opacity=".392157"
       id="stop18" />
  </linearGradient>
  <linearGradient
     id="d"
     gradientUnits="userSpaceOnUse"
     x1="-73.999916"
     x2="-73.999916"
     xlink:href="#b"
     y1="-208.00011"
     y2="-200.00011" />
  <linearGradient
     id="e"
     gradientUnits="userSpaceOnUse"
     x1="-73.999916"
     x2="-73.999916"
     xlink:href="#linearGradient1075"
     y1="-201.77774"
     y2="-206.22221"
     gradientTransform="matrix(0.40000003,0,0,-1.7999893,33.299954,-359.19778)" />
  <linearGradient
     id="f"
     gradientUnits="userSpaceOnUse"
     x1="-69.999916"
     x2="-69.999916"
     xlink:href="#linearGradient874"
     y1="-200.00011"
     y2="-208.00011"
     gradientTransform="matrix(0.5,0,0,-1.5714286,40.749939,-312.57142)" />
  <linearGradient
     id="g"
     gradientUnits="userSpaceOnUse"
     x1="-479.99991"
     x2="-479.99991"
     xlink:href="#b"
     y1="128.99989"
     y2="136.99989" />
  <linearGradient
     id="h"
     gradientUnits="userSpaceOnUse"
     x1="-475.99991"
     x2="-475.99991"
     xlink:href="#linearGradient874"
     y1="136.99989"
     y2="128.99989"
     gradientTransform="matrix(1,0,0,-1,491,143.99614)" />
  <linearGradient
     id="i"
     gradientUnits="userSpaceOnUse"
     x1="-478.99991"
     x2="-478.99991"
     xlink:href="#c"
     y1="134.99989"
     y2="130.99989"
     gradientTransform="matrix(1,0,0,-1,491,143.99614)" />
  <linearGradient
     id="j">
    <stop
       offset="0"
       stop-color="#ce5c00"
       id="stop27" />
    <stop
       offset="1"
       stop-color="#ce5c00"
       stop-opacity="0"
       id="stop29" />
  </linearGradient>
  <linearGradient
     id="k"
     gradientTransform="rotate(180,197.99995,490.5)"
     gradientUnits="userSpaceOnUse"
     x1="187.60938"
     x2="186.93732"
     xlink:href="#j"
     y1="489.35938"
     y2="489.35938" />
  <linearGradient
     id="l">
    <stop
       offset="0"
       stop-color="#fcaf3e"
       id="stop33" />
    <stop
       offset="1"
       stop-color="#fcaf3e"
       stop-opacity="0"
       id="stop35" />
  </linearGradient>
  <linearGradient
     id="m"
     gradientTransform="rotate(180,197.99995,490.5)"
     gradientUnits="userSpaceOnUse"
     x1="187.81554"
     x2="187.1716"
     xlink:href="#l"
     y1="489.54688"
     y2="489.54688" />
  <linearGradient
     id="n"
     gradientUnits="userSpaceOnUse"
     x1="187.60938"
     x2="186.93732"
     xlink:href="#j"
     y1="489.35938"
     y2="489.35938" />
  <linearGradient
     id="o"
     gradientUnits="userSpaceOnUse"
     x1="187.81554"
     x2="187.1716"
     xlink:href="#l"
     y1="489.54688"
     y2="489.54688" />
  <path
     d="M 0.50000001,13.5 H 6.5000001 V 2.5 H 0.50000001 Z"
     stroke-miterlimit="3"
     id="path41"
     style="fill:#555761;stroke:none;stroke-width:1;stroke-linejoin:round;stroke-miterlimit:3;opacity:0.1;fill-opacity:1" />
  <path
     d="m 9.5,12.5 h 6 V 3.5000001 h -6 z"
     stroke-miterlimit="3"
     id="path41-0"
     style="fill:#555761;stroke:none;stroke-width:0.99999994;stroke-linejoin:round;stroke-miterlimit:3;opacity:0.1;fill-opacity:1" />
  <path
     id="rect3863"
     d="m 2.4997986,0 v 2.5 h 2 V 0 Z m 0,4.5 v 3.0000001 h 2 V 4.5 Z m 0,5.0000001 V 12.5 h 2 V 9.5000001 Z m 0,4.9999999 V 16 h 2 v -1.5 z"
     style="opacity:1;vector-effect:none;fill:#555761;fill-opacity:1;stroke:none;stroke-width:1;stroke-linecap:butt;stroke-linejoin:miter;stroke-miterlimit:4;stroke-dasharray:none;stroke-dashoffset:0;stroke-opacity:1;marker:none;paint-order:normal" />
  <path
     id="rect3863-9"
     d="m 11.5,0 v 2.5 h 2 V 0 Z m 0,4.5 v 3.0000001 h 2 V 4.5 Z m 0,5.0000001 V 12.5 h 2 V 9.5000001 Z M 11.5,14.5 V 16 h 2 v -1.5 z"
     style="opacity:1;vector-effect:none;fill:#555761;fill-opacity:1;stroke:none;stroke-width:1;stroke-linecap:butt;stroke-linejoin:miter;stroke-miterlimit:4;stroke-dasharray:none;stroke-dashoffset:0;stroke-opacity:1;marker:none;paint-order:normal" />
  <path
     sodipodi:nodetypes="ccccccccssssc"
     id="path926"
     d="M 14.5,13 V 12.498047 C 14.499413,12.323102 14.45271,12.151371 14.365,12 H 15 V 4.0000001 h -0.49964 v -0.5 c -8.38e-4,-0.175786 -0.04664,-0.348245 -0.13536,-0.5 H 15.5 c 0.277002,0 0.5,0.222999 0.5,0.5 V 12.5 c 0,0.277002 -0.223,0.5 -0.5,0.5 z"
     style="vector-effect:none;fill:#555761;fill-opacity:1;stroke:none;stroke-width:1;stroke-linecap:butt;stroke-linejoin:miter;stroke-miterlimit:4;stroke-dasharray:none;stroke-dashoffset:0;stroke-opacity:1;marker:none;paint-order:normal" />
  <path
     style="vector-effect:none;fill:#555761;fill-opacity:1;stroke:none;stroke-width:1;stroke-linecap:butt;stroke-linejoin:miter;stroke-miterlimit:4;stroke-dasharray:none;stroke-dashoffset:0;stroke-opacity:1;marker:none;paint-order:normal"
     d="M 10.5,13 V 12.498047 C 10.500587,12.323102 10.54729,12.151371 10.635,12 H 10 V 4.0000001 h 0.49964 v -0.5 c 8.38e-4,-0.175786 0.04664,-0.348245 0.13536,-0.5 H 9.5 c -0.277002,0 -0.5,0.222999 -0.5,0.5 V 12.5 C 9,12.777002 9.223,13 9.5,13 Z"
     id="path946"
     sodipodi:nodetypes="ccccccccssssc" />
  <path
     style="vector-effect:none;fill:#555761;fill-opacity:1;stroke:none;stroke-width:1;stroke-linecap:butt;stroke-linejoin:miter;stroke-miterlimit:4;stroke-dasharray:none;stroke-dashoffset:0;stroke-opacity:1;marker:none;paint-order:normal"
     d="M 5.4999995,14 V 13.498046 C 5.4994125,13.323102 5.45271,13.15137 5.365,13 H 5.9999995 V 2.9999999 h -0.49964 v -0.5 c -8.38e-4,-0.175786 -0.04664,-0.348245 -0.1353595,-0.5 h 1.1349995 c 0.277002,0 0.5,0.222999 0.5,0.5 V 13.5 c 0,0.277001 -0.223,0.5 -0.5,0.5 z"
     id="path948"
     sodipodi:nodetypes="ccccccccssssc" />
  <path
     sodipodi:nodetypes="ccccccccssssc"
     id="path950"
     d="M 1.4999995,14 V 13.498046 C 1.5005865,13.323102 1.54729,13.15137 1.635,13 H 0.9999995 V 2.9999999 h 0.49964 v -0.5 c 8.38e-4,-0.175786 0.046641,-0.348245 0.1353605,-0.5 H 0.4999995 C 0.222998,1.9999999 0,2.2229989 0,2.4999999 V 13.5 c 0,0.277001 0.22305812,0.494326 0.4999995,0.5 z"
     style="vector-effect:none;fill:#555761;fill-opacity:1;stroke:none;stroke-width:1;stroke-linecap:butt;stroke-linejoin:miter;stroke-miterlimit:4;stroke-dasharray:none;stroke-dashoffset:0;stroke-opacity:1;marker:none;paint-order:normal" />
</svg>

<svg
        xmlns='http://www.w3.org/2000/svg'
        xmlns:svg='http://www.w3.org/2000/svg'
        width='16'
        height='16'>
  <path
          fill='url(#gpa:foreground) #555761'
          fill-opacity='0.1'
          stroke='none'
          stroke-linejoin='round'
          stroke-miterlimit='3'
          d='M 0.5 13.5 L 6.5 13.5 L 6.5 2.5 L 0.5 2.5 Z'
          class="foreground">
  </path>
  <path
          fill='url(#gpa:foreground) #555761'
          fill-opacity='0.1'
          stroke='none'
          stroke-linejoin='round'
          stroke-miterlimit='3'
          d='M 9.5 12.5 L 15.5 12.5 L 15.5 3.5 L 9.5 3.5 Z'
          class="foreground">
  </path>
  <path
          fill='url(#gpa:foreground) #555761'
          stroke='none'
          paint-order='normal'
          d='M 2.4998 0 L 2.4998 2.5 L 4.4998 2.5 L 4.4998 0 Z M 2.4998 4.5 L 2.4998 7.5 L 4.4998 7.5 L 4.4998 4.5 Z M 2.4998 9.5 L 2.4998 12.5 L 4.4998 12.5 L 4.4998 9.5 Z M 2.4998 14.5 L 2.4998 16 L 4.4998 16 L 4.4998 14.5 Z'
          class="foreground">
  </path>
  <path
          fill='url(#gpa:foreground) #555761'
          stroke='none'
          paint-order='normal'
          d='M 11.5 0 L 11.5 2.5 L 13.5 2.5 L 13.5 0 Z M 11.5 4.5 L 11.5 7.5 L 13.5 7.5 L 13.5 4.5 Z M 11.5 9.5 L 11.5 12.5 L 13.5 12.5 L 13.5 9.5 Z M 11.5 14.5 L 11.5 16 L 13.5 16 L 13.5 14.5 Z'
          class="foreground">
  </path>
  <path
          fill='url(#gpa:foreground) #555761'
          stroke='none'
          paint-order='normal'
          d='M 14.5 13 L 14.5 12.498 C 14.4994 12.3231, 14.4527 12.1514, 14.365 12 L 15 12 L 15 4 L 14.5004 4 L 14.5004 3.5 C 14.4995 3.32421, 14.4537 3.15176, 14.365 3 L 15.5 3 C 15.777 3, 16 3.223, 16 3.5 L 16 12.5 C 16 12.777, 15.777 13, 15.5 13 Z'
          class="foreground">
  </path>
  <path
          fill='url(#gpa:foreground) #555761'
          stroke='none'
          paint-order='normal'
          d='M 10.5 13 L 10.5 12.498 C 10.5006 12.3231, 10.5473 12.1514, 10.635 12 L 10 12 L 10 4 L 10.4996 4 L 10.4996 3.5 C 10.5005 3.32421, 10.5463 3.15176, 10.635 3 L 9.5 3 C 9.223 3, 9 3.223, 9 3.5 L 9 12.5 C 9 12.777, 9.223 13, 9.5 13 Z'
          class="foreground">
  </path>
  <path
          fill='url(#gpa:foreground) #555761'
          fill-opacity='1'
          fill-rule='nonzero'
          paint-order='normal'
          d='M 5.5 14 L 5.5 13.498 C 5.49941 13.3231, 5.45271 13.1514, 5.365 13 L 6 13 L 6 3 L 5.50036 3 L 5.50036 2.5 C 5.49952 2.32421, 5.45372 2.15175, 5.365 2 L 6.5 2 C 6.777 2, 7 2.223, 7 2.5 L 7 13.5 C 7 13.777, 6.777 14, 6.5 14 Z'
          class="foreground">
  </path>
  <path
          fill='url(#gpa:foreground) #555761'
          fill-opacity='1'
          fill-rule='nonzero'
          paint-order='normal'
          d='M 1.5 14 L 1.5 13.498 C 1.50059 13.3231, 1.54729 13.1514, 1.635 13 L 1 13 L 1 3 L 1.49964 3 L 1.49964 2.5 C 1.50048 2.32421, 1.54628 2.15175, 1.635 2 L 0.5 2 C 0.223 2, -2.22045e-16 2.223, -2.22045e-16 2.5 L -2.22045e-16 13.5 C -2.22045e-16 13.777, 0.22306 13.9943, 0.5 14 Z'
          class="foreground">
  </path>
</svg>
